svgs/sharp-regular/trowel-bricks.svg

<svg xmlns="http://www.w3.org/2000/svg" viewBox="0 0 512 512"><!--! Font Awesome Pro 6.6.0 by @fontawesome - https://fontawesome.com License - https://fontawesome.com/license (Commercial License) Copyright 2024 Fonticons, Inc. --><path d="M256 152l0 104-48 0L0 128 208 0l48 0 0 104 88 0 0-24 168 0 0 96-168 0 0-24-88 0zm32 184l0-48 0-16 0-48 48 0 128 0 48 0 0 48 0 64 0 88 0 40 0 48-48 0L48 512 0 512l0-48 0-80 0-48 48 0 192 0 48 0zm48 0l128 0 0-64-128 0 0 64zm0 48l-32 0-16 0-32 0 0 80 208 0 0-40 0-40-128 0zm-128 0L48 384l0 80 160 0 0-80z"/></svg>

<svg xmlns="http://www.w3.org/2000/svg" viewBox="0 0 512 512"><!--! Font Awesome Pro 6.5.2 by @fontawesome - https://fontawesome.com License - https://fontawesome.com/license (Commercial License) Copyright 2024 Fonticons, Inc. --><path d="M256 152V256H208L0 128 208 0h48V104h88V80H512v96H344V152H256zm32 184V288 272 224h48H464h48v48 64 88 40 48H464 48 0V464 384 336H48 240h48zm48 0H464V272H336v64zm0 48H304 288 256v80H464V424 384H336zm-128 0H48v80H208V384z"/></svg>
